X:1
T:Golden Vanity
M:2/4
L:1/8
K:C
 G2| AG AB| c4-| c2 GG| AG AB| c2 GG| A2 GG| G2 ED| CC DC| C2 CD| E3/2 D/2 EF|\
 G2 AG|E-D C2| E2 CD| E3/2 D/2 EF| G2 D2| C4-| C2||
